X:35
T:Fortune Hunters. THO5.035, The
M:2/4
L:1/8
B:Thompson's Complete Collection of 200 Favourite Dances Vol.5
F:https://www.libraryofdance.org/manuals/1780c-Thompson-Compleat-5.pdf
Z:vmp. Peter Dunk 2024
Q:1/4=100
K:F
c/B/|AFFc|AFFf|e/f/e/d/ c/d/c/B/|AFF c/B/|
AFFf|eccf|ed/c/ e/d/c/=B/|cC C:|
|:c/B/|AFF_e|_ed dd/c/|=BGGf|eccf|
a/g/f/e/ f/g/a/f/|b/a/g/f/ b/a/g/f/|e/f/g/f/ e/f/g/e/|fF F:|
W:
W:Cast off two Couples ./.
W:lead up to the top and cast off ./:
W:hands four at bottom :/.
W:right and left at top :/:

